core/assets/icons/close.svg

<svg width="24" height="24" viewBox="0 0 24 24" xmlns="http://www.w3.org/2000/svg"><g id="close"><path id="Vector" d="M12 10.586L16.95 5.63599L18.364 7.04999L13.414 12L18.364 16.95L16.95 18.364L12 13.414L7.04999 18.364L5.63599 16.95L10.586 12L5.63599 7.04999L7.04999 5.63599L12 10.586Z"/></g></svg>

<svg xmlns="http://www.w3.org/2000/svg" width="24" height="24" fill="none"><path fill="#191C22" d="m12 10.586 4.95-4.95 1.414 1.414-4.95 4.95 4.95 4.95-1.414 1.414-4.95-4.95-4.95 4.95-1.414-1.414 4.95-4.95-4.95-4.95L7.05 5.636l4.95 4.95Z"/></svg>
